svg/backup.svg

<?xml version="1.0" encoding="UTF-8" standalone="no"?>
<svg
   width="25"
   height="25"
   viewBox="0 0 25 25"
   fill="none"
   version="1.1"
   id="svg3"
   sodipodi:docname="backup.svg"
   inkscape:version="1.4 (86a8ad7, 2024-10-11)"
   xmlns:inkscape="http://www.inkscape.org/namespaces/inkscape"
   xmlns:sodipodi="http://sodipodi.sourceforge.net/DTD/sodipodi-0.dtd"
   xmlns="http://www.w3.org/2000/svg"
   xmlns:svg="http://www.w3.org/2000/svg">
  <defs
     id="defs3" />
  <sodipodi:namedview
     id="namedview3"
     pagecolor="#ffffff"
     bordercolor="#000000"
     borderopacity="0.25"
     inkscape:showpageshadow="2"
     inkscape:pageopacity="0.0"
     inkscape:pagecheckerboard="0"
     inkscape:deskcolor="#d1d1d1"
     inkscape:zoom="11.073292"
     inkscape:cx="-9.2565064"
     inkscape:cy="16.752019"
     inkscape:window-width="1920"
     inkscape:window-height="1001"
     inkscape:window-x="-9"
     inkscape:window-y="-9"
     inkscape:window-maximized="1"
     inkscape:current-layer="svg3" />
  <g
     id="g3"
     transform="translate(0.1461225,0.51829529)">
    <path
       d="M 9.67519,3.60671 C 8.54237,3.60669 7.61662,3.60667 6.88576,3.70493 6.12181,3.80764 5.45948,4.02992 4.93078,4.55862 4.40209,5.08731 4.17981,5.74965 4.0771,6.5136 3.97884,7.24446 3.97885,8.17019 3.97888,9.30302 v 6.05978 c -0.46507,0.0135 -0.76071,0.0567 -1,0.1949 -0.22803,0.1316 -0.41739,0.321 -0.54904,0.549 -0.20096,0.3481 -0.20096,0.8154 -0.20096,1.75 0,0.9346 0,1.4019 0.20096,1.75 0.13165,0.228 0.32101,0.4174 0.54904,0.549 0.34808,0.201 0.81538,0.201 1.75,0.201 0.93462,0 1.40192,0 1.75,-0.201 0.22803,-0.1316 0.41739,-0.321 0.54904,-0.549 0.20096,-0.3481 0.20096,-0.8154 0.20096,-1.75 0,-0.9346 0,-1.4019 -0.20096,-1.75 -0.13165,-0.228 -0.32101,-0.4174 -0.54904,-0.549 -0.23929,-0.1382 -0.53493,-0.1814 -1,-0.1949 V 9.35671 C 5.47888,8.157 5.48047,7.33266 5.56372,6.71347 5.64407,6.11585 5.7879,5.82282 5.99144,5.61928 6.19498,5.41574 6.48802,5.2719 7.08564,5.19155 7.70483,5.10831 8.52917,5.10671 9.72888,5.10671 h 5.00002 c 1.1997,0 2.024,0.0016 2.6432,0.08484 0.5977,0.08035 0.8907,0.22419 1.0942,0.42773 0.2036,0.20354 0.3474,0.49657 0.4278,1.09419 0.0832,0.61919 0.0848,1.44353 0.0848,2.64324 V 10.546 L 18.2592,9.82638 c -0.2929,-0.29289 -0.7677,-0.29289 -1.0606,0 -0.2929,0.29292 -0.2929,0.76772 0,1.06062 l 2,2 c 0.2929,0.2929 0.7677,0.2929 1.0606,0 l 2,-2 c 0.2929,-0.2929 0.2929,-0.7677 0,-1.06062 -0.2929,-0.29289 -0.7677,-0.29289 -1.0606,0 L 20.4789,10.546 V 9.30302 c 0,-1.13283 0,-2.05856 -0.0982,-2.78942 C 20.278,5.74965 20.0557,5.08731 19.527,4.55862 18.9983,4.02992 18.336,3.80764 17.572,3.70493 16.8412,3.60667 15.9154,3.60669 14.7826,3.60671 Z"
       fill="#2d2d2d"
       id="path1" />
    <path
       d="m 9.92984,16.1067 c -0.20096,0.3481 -0.20096,0.8154 -0.20096,1.75 0,0.9346 0,1.4019 0.20096,1.75 0.13166,0.228 0.32106,0.4174 0.54906,0.549 0.3481,0.201 0.8154,0.201 1.75,0.201 0.9346,0 1.4019,0 1.75,-0.201 0.228,-0.1316 0.4174,-0.321 0.549,-0.549 0.201,-0.3481 0.201,-0.8154 0.201,-1.75 0,-0.9346 0,-1.4019 -0.201,-1.75 -0.1316,-0.228 -0.321,-0.4174 -0.549,-0.549 -0.3481,-0.201 -0.8154,-0.201 -1.75,-0.201 -0.9346,0 -1.4019,0 -1.75,0.201 -0.228,0.1316 -0.4174,0.321 -0.54906,0.549 z"
       fill="#2d2d2d"
       id="path2" />
    <path
       d="m 17.2289,17.8567 c 0,-0.9346 0,-1.4019 0.201,-1.75 0.1316,-0.228 0.321,-0.4174 0.549,-0.549 0.3481,-0.201 0.8154,-0.201 1.75,-0.201 0.9346,0 1.4019,0 1.75,0.201 0.228,0.1316 0.4174,0.321 0.549,0.549 0.201,0.3481 0.201,0.8154 0.201,1.75 0,0.9346 0,1.4019 -0.201,1.75 -0.1316,0.228 -0.321,0.4174 -0.549,0.549 -0.3481,0.201 -0.8154,0.201 -1.75,0.201 -0.9346,0 -1.4019,0 -1.75,-0.201 -0.228,-0.1316 -0.4174,-0.321 -0.549,-0.549 -0.201,-0.3481 -0.201,-0.8154 -0.201,-1.75 z"
       fill="#2d2d2d"
       id="path3" />
  </g>
</svg>

<svg width="25" height="25" viewBox="0 0 25 25" fill="none" xmlns="http://www.w3.org/2000/svg">
<path d="M9.67519 3.60671C8.54237 3.60669 7.61662 3.60667 6.88576 3.70493C6.12181 3.80764 5.45948 4.02992 4.93078 4.55862C4.40209 5.08731 4.17981 5.74965 4.0771 6.5136C3.97884 7.24446 3.97885 8.17019 3.97888 9.30302V15.3628C3.51381 15.3763 3.21817 15.4195 2.97888 15.5577C2.75085 15.6893 2.56149 15.8787 2.42984 16.1067C2.22888 16.4548 2.22888 16.9221 2.22888 17.8567C2.22888 18.7913 2.22888 19.2586 2.42984 19.6067C2.56149 19.8347 2.75085 20.0241 2.97888 20.1557C3.32696 20.3567 3.79426 20.3567 4.72888 20.3567C5.6635 20.3567 6.1308 20.3567 6.47888 20.1557C6.70691 20.0241 6.89627 19.8347 7.02792 19.6067C7.22888 19.2586 7.22888 18.7913 7.22888 17.8567C7.22888 16.9221 7.22888 16.4548 7.02792 16.1067C6.89627 15.8787 6.70691 15.6893 6.47888 15.5577C6.23959 15.4195 5.94395 15.3763 5.47888 15.3628V9.35671C5.47888 8.157 5.48047 7.33266 5.56372 6.71347C5.64407 6.11585 5.7879 5.82282 5.99144 5.61928C6.19498 5.41574 6.48802 5.2719 7.08564 5.19155C7.70483 5.10831 8.52917 5.10671 9.72888 5.10671H14.7289C15.9286 5.10671 16.7529 5.10831 17.3721 5.19155C17.9698 5.2719 18.2628 5.41574 18.4663 5.61928C18.6699 5.82282 18.8137 6.11585 18.8941 6.71347C18.9773 7.33266 18.9789 8.157 18.9789 9.35671V10.546L18.2592 9.82638C17.9663 9.53349 17.4915 9.53349 17.1986 9.82638C16.9057 10.1193 16.9057 10.5941 17.1986 10.887L19.1986 12.887C19.4915 13.1799 19.9663 13.1799 20.2592 12.887L22.2592 10.887C22.5521 10.5941 22.5521 10.1193 22.2592 9.82638C21.9663 9.53349 21.4915 9.53349 21.1986 9.82638L20.4789 10.546V9.30302C20.4789 8.17019 20.4789 7.24446 20.3807 6.5136C20.278 5.74965 20.0557 5.08731 19.527 4.55862C18.9983 4.02992 18.336 3.80764 17.572 3.70493C16.8412 3.60667 15.9154 3.60669 14.7826 3.60671H9.67519Z" fill="#2D2D2D"/>
<path d="M9.92984 16.1067C9.72888 16.4548 9.72888 16.9221 9.72888 17.8567C9.72888 18.7913 9.72888 19.2586 9.92984 19.6067C10.0615 19.8347 10.2509 20.0241 10.4789 20.1557C10.827 20.3567 11.2943 20.3567 12.2289 20.3567C13.1635 20.3567 13.6308 20.3567 13.9789 20.1557C14.2069 20.0241 14.3963 19.8347 14.5279 19.6067C14.7289 19.2586 14.7289 18.7913 14.7289 17.8567C14.7289 16.9221 14.7289 16.4548 14.5279 16.1067C14.3963 15.8787 14.2069 15.6893 13.9789 15.5577C13.6308 15.3567 13.1635 15.3567 12.2289 15.3567C11.2943 15.3567 10.827 15.3567 10.4789 15.5577C10.2509 15.6893 10.0615 15.8787 9.92984 16.1067Z" fill="#2D2D2D"/>
<path d="M17.2289 17.8567C17.2289 16.9221 17.2289 16.4548 17.4299 16.1067C17.5615 15.8787 17.7509 15.6893 17.9789 15.5577C18.327 15.3567 18.7943 15.3567 19.7289 15.3567C20.6635 15.3567 21.1308 15.3567 21.4789 15.5577C21.7069 15.6893 21.8963 15.8787 22.0279 16.1067C22.2289 16.4548 22.2289 16.9221 22.2289 17.8567C22.2289 18.7913 22.2289 19.2586 22.0279 19.6067C21.8963 19.8347 21.7069 20.0241 21.4789 20.1557C21.1308 20.3567 20.6635 20.3567 19.7289 20.3567C18.7943 20.3567 18.327 20.3567 17.9789 20.1557C17.7509 20.0241 17.5615 19.8347 17.4299 19.6067C17.2289 19.2586 17.2289 18.7913 17.2289 17.8567Z" fill="#2D2D2D"/>
</svg>
